Flat-Remix-Blue-Dark/apps/scalable/teslagrad.svg

<svg xmlns="http://www.w3.org/2000/svg" xmlns:xlink="http://www.w3.org/1999/xlink" width="512" height="512" version="1.1" viewBox="0 0 384 384"> <defs> <filter id="alpha" width="100%" height="100%" x="0%" y="0%" filterUnits="objectBoundingBox"> <feColorMatrix in="SourceGraphic" type="matrix" values="0 0 0 0 1 0 0 0 0 1 0 0 0 0 1 0 0 0 1 0"/> </filter> <mask id="mask0"> <g filter="url(#alpha)"> <rect width="384" height="384" x="0" y="0" style="fill:rgb(0%,0%,0%);fill-opacity:0.2"/> </g> </mask> <clipPath id="clip1"> <rect width="384" height="384" x="0" y="0"/> </clipPath> <g id="surface5" clip-path="url(#clip1)"> <path style="fill:rgb(0%,0%,0%)" d="M 347.628906 156.742188 C 343.558594 235.558594 255.289062 354 177.910156 354 C 104.070312 354 40.132812 246.144531 36.234375 163.222656 C 33.988281 247.308594 100.433594 366 177.910156 366 C 257.125 366 348 241.753906 348 163.105469 C 348 160.933594 347.734375 158.878906 347.628906 156.757812 Z M 347.628906 156.742188"/> </g> <mask id="mask1"> <g filter="url(#alpha)"> <rect width="384" height="384" x="0" y="0" style="fill:rgb(0%,0%,0%);fill-opacity:0.101961"/> </g> </mask> <clipPath id="clip2"> <rect width="384" height="384" x="0" y="0"/> </clipPath> <g id="surface8" clip-path="url(#clip2)"> <path style="fill:rgb(100.000%,100.000%,100.000%)" d="M 211.054688 85.015625 C 215.984375 95.59375 201.414062 106.421875 172.042969 119.210938 C 145.164062 130.890625 116.289062 135.445312 102.046875 130.246094 C 102.449219 131.148438 103.015625 131.992188 103.742188 132.765625 C 113.378906 142.679688 147.382812 139.328125 179.6875 125.273438 C 211.984375 111.230469 230.351562 91.808594 220.722656 81.894531 C 219.292969 80.453125 213.574219 85.917969 211.050781 85.011719 Z M 211.054688 85.015625"/> </g> <mask id="mask2"> <g filter="url(#alpha)"> <rect width="384" height="384" x="0" y="0" style="fill:rgb(0%,0%,0%);fill-opacity:0.101961"/> </g> </mask> <clipPath id="clip3"> <rect width="384" height="384" x="0" y="0"/> </clipPath> <g id="surface11" clip-path="url(#clip3)"> <path style="fill:rgb(100.000%,100.000%,100.000%)" d="M 300.445312 198.875 C 307.765625 196.332031 302.4375 177.25 294.167969 158.769531 C 289.535156 148.425781 282.707031 136.738281 274.546875 127.644531 C 267.742188 120.058594 259.246094 114.105469 250.644531 108.742188 C 241.714844 103.171875 233.617188 99.140625 222.226562 95.152344 C 223.183594 94.800781 229.289062 88.347656 230.46875 88.296875 C 241.617188 88.015625 219.28125 79.015625 233.570312 92.949219 C 239.0625 98.304688 272.589844 110.570312 285.78125 126.753906 C 297.011719 140.53125 301.085938 159.292969 305.472656 176.660156 C 307.425781 184.382812 319.160156 200.125 308.324219 200.402344 C 306.050781 200.441406 303.402344 199.929688 300.445312 198.878906 Z M 300.445312 198.875"/> </g> <mask id="mask3"> <g filter="url(#alpha)"> <rect width="384" height="384" x="0" y="0" style="fill:rgb(0%,0%,0%);fill-opacity:0.101961"/> </g> </mask> <clipPath id="clip4"> <rect width="384" height="384" x="0" y="0"/> </clipPath> <g id="surface14" clip-path="url(#clip4)"> <path style="fill:rgb(100.000%,100.000%,100.000%)" d="M 149.976562 24.023438 C 109.46875 22.667969 40.015625 94.265625 36.304688 151.546875 C 36.042969 155.5625 36.003906 159.695312 36.070312 163.871094 C 36.117188 161.746094 36.167969 159.625 36.304688 157.546875 C 40.015625 100.265625 109.46875 28.667969 149.976562 30.023438 C 151.03125 30.128906 151.792969 30.320312 152.421875 30.5625 C 154.5 27.707031 156.023438 24.625 149.976562 24.023438 Z M 194.273438 29.496094 C 180.804688 29.496094 167.773438 31.335938 155.410156 34.78125 C 154.457031 35.046875 154.066406 35.058594 153.371094 35.203125 C 150.964844 39.226562 145.210938 43.625 155.410156 40.78125 C 167.773438 37.335938 180.804688 35.496094 194.273438 35.496094 C 272.398438 35.496094 345.910156 83.140625 347.902344 159.925781 C 347.933594 158.988281 348 158.027344 348 157.105469 C 348 78.445312 273.480469 29.496094 194.273438 29.496094 Z M 194.273438 29.496094"/> </g> </defs> <g> <use mask="url(#mask0)" xlink:href="#surface5"/> <path style="fill:rgb(21.960%,23.529%,29.019%)" d="M 348 157.097656 C 348 235.757812 257.125 359.992188 177.910156 359.992188 C 98.699219 359.992188 30.839844 235.84375 36.3125 151.542969 C 40.019531 94.265625 109.464844 22.660156 149.976562 24.019531 C 163.570312 25.375 139.109375 39.332031 155.417969 34.785156 C 167.777344 31.339844 180.808594 29.496094 194.28125 29.496094 C 273.492188 29.496094 348 78.445312 348 157.105469 Z M 348 157.097656"/> <path style="fill:rgb(17.647%,18.823%,23.137%)" d="M 312.421875 167.785156 C 312.421875 227.109375 296.292969 301.691406 236.890625 340.019531 C 217.546875 352.5 197.375 360 177.910156 360 C 161.976562 360 146.496094 354.972656 131.988281 346.261719 C 74.363281 311.652344 72.257812 220.34375 76.625 153 C 89.367188 84.226562 122.625 88.121094 161.097656 77.003906 C 173.457031 73.558594 207.371094 72.683594 220.835938 72.683594 C 300.046875 72.683594 312.425781 89.125 312.425781 167.777344 Z M 312.421875 167.785156"/> <path style="fill:rgb(70.196%,70.196%,70.196%)" d="M 277.078125 220.546875 C 277.078125 251.464844 249.3125 279.34375 234.566406 306.394531 C 216.886719 338.835938 220.828125 345.71875 185.050781 345.71875 C 119.441406 345.71875 97.769531 285.042969 97.769531 217.042969 C 97.769531 181.601562 99.488281 137.929688 122.617188 115.464844 C 143.863281 94.832031 179.699219 89.601562 211.105469 89.601562 C 245.921875 89.601562 263.035156 115.382812 273.230469 131.46875 C 282.246094 145.695312 277.078125 188.628906 277.078125 220.542969 Z M 277.078125 220.546875"/> <path style="fill:rgb(29.803%,30.980%,36.078%)" d="M 222.414062 83.941406 C 229.066406 100.648438 205.527344 126.140625 169.832031 140.878906 C 134.136719 155.613281 99.808594 154.015625 93.15625 137.304688 C 86.5 120.59375 110.042969 95.101562 145.734375 80.367188 C 181.429688 65.628906 215.757812 67.230469 222.414062 83.941406 Z M 222.414062 83.941406"/> <path style="fill:rgb(29.803%,30.980%,36.078%)" d="M 222.46875 89.46875 C 235.328125 77.070312 269.980469 69.304688 296.464844 97.78125 C 322.945312 126.257812 316.878906 202.675781 304.019531 215.070312 C 291.160156 227.46875 294.046875 159.910156 267.566406 131.433594 C 241.082031 102.957031 209.613281 101.863281 222.46875 89.464844 Z M 222.46875 89.46875"/> <path style="fill:rgb(29.803%,30.980%,36.078%)" d="M 99.578125 129.527344 C 116.402344 138.5625 118.921875 168.839844 105.203125 197.160156 C 91.484375 225.476562 108.679688 271.460938 91.851562 262.425781 C 75.027344 253.394531 56.339844 205.027344 70.058594 176.710938 C 83.78125 148.394531 82.746094 120.5 99.578125 129.527344 Z M 99.578125 129.527344"/> <use mask="url(#mask1)" xlink:href="#surface8"/> <use mask="url(#mask2)" xlink:href="#surface11"/> <path style="fill:rgb(40.392%,54.509%,78.431%);stroke-width:0.96801;stroke-linecap:round;stroke-linejoin:round;stroke:rgb(21.960%,23.529%,29.019%)" d="M 56.061849 23.57487 C 56.856771 28.789062 54.811849 36.201823 52.315755 40.826172 C 48.608724 47.692708 43.920573 52.100911 38.830078 56.578125 C 38.830078 56.578125 46.097005 43.576172 48.273438 36.492188 C 49.31901 33.087891 50.352214 29.470703 49.945312 25.927734 C 49.639323 23.270182 48.777344 21.125651 46.827474 19.333333 C 45.197917 17.833984 42.783203 16.936849 40.613281 16.588542 C 38.255208 16.209635 35.825521 16.144531 33.455078 16.424479 C 29.863281 16.848307 26.070312 17.326172 22.954427 19.194661 C 21.26237 20.208984 19.688151 21.711589 18.896484 23.541667 C 16.90625 28.140625 17.07487 33.620443 17.861328 38.58138 C 18.884115 45.038411 24.88151 58.479167 24.88151 58.479167 L 24.541667 58.339844 C 24.541667 58.339844 21.121745 56.727865 18.380208 53.953776 C 15.701172 51.246745 13.71875 47.404948 12.347656 44.834635 C 9.56901 39.626953 9.143229 33.942708 10.128255 28.102865 C 10.744792 22.476562 13.144531 17.826823 16.949219 14.767578 C 24.516276 9.330078 33.442708 8.058594 41.741536 9.960286 C 49.030599 11.44401 54.858724 16.432943 56.059245 23.577474 Z M 56.061849 23.57487" transform="matrix(6,0,0,6,0,0)"/> <path style="fill:rgb(9.803%,9.803%,9.803%)" d="M 216.382812 156.433594 L 249.117188 140.605469 C 252.078125 139.175781 255.316406 139.847656 256.351562 142.105469 C 257.386719 144.367188 255.824219 147.359375 252.867188 148.789062 L 220.132812 164.617188 C 217.171875 166.046875 213.933594 165.375 212.898438 163.117188 C 211.863281 160.859375 213.421875 157.867188 216.382812 156.433594 Z M 216.382812 156.433594"/> <path style="fill:rgb(9.803%,9.803%,9.803%)" d="M 123.1875 162.066406 L 153.445312 173.488281 C 156.183594 174.523438 157.738281 177.175781 156.914062 179.414062 C 156.089844 181.652344 153.199219 182.628906 150.457031 181.597656 L 120.203125 170.175781 C 117.460938 169.140625 115.90625 166.484375 116.734375 164.246094 C 117.558594 162.007812 120.449219 161.03125 123.1875 162.066406 Z M 123.1875 162.066406"/> <path style="fill:rgb(9.803%,9.803%,9.803%)" d="M 150.742188 201.347656 C 150.742188 185.328125 145.726562 172.34375 139.535156 172.34375 C 133.347656 172.34375 128.328125 185.328125 128.328125 201.347656 C 128.328125 217.367188 133.347656 230.351562 139.535156 230.351562 C 145.726562 230.351562 150.742188 217.367188 150.742188 201.347656 Z M 150.742188 201.347656"/> <path style="fill:rgb(9.803%,9.803%,9.803%)" d="M 243.175781 194.390625 C 242.066406 177.566406 235.839844 163.980469 229.265625 164.046875 C 222.691406 164.109375 218.257812 177.800781 219.367188 194.625 C 220.476562 211.445312 226.703125 225.035156 233.277344 224.96875 C 239.851562 224.90625 244.28125 211.214844 243.175781 194.390625 Z M 243.175781 194.390625"/> <path style="fill:rgb(9.803%,9.803%,9.803%)" d="M 207.203125 228.792969 C 211.984375 234.59375 224.730469 237.628906 227.554688 246.089844 C 230.058594 253.589844 227.019531 262.867188 222.355469 269.246094 C 219.660156 272.933594 215.089844 275.882812 210.539062 276.136719 C 203.628906 276.527344 193.578125 274.386719 191.53125 267.75 C 190.984375 265.984375 192.675781 263.570312 194.441406 263.039062 C 198.78125 261.734375 202.414062 269.984375 206.78125 268.769531 C 214.542969 266.609375 221.664062 256.695312 220.371094 248.710938 C 219.167969 241.28125 205.863281 241.738281 202.476562 235.019531 C 199.90625 229.917969 196.589844 218.933594 202.183594 217.871094 C 203.613281 221.027344 205.085938 226.140625 207.203125 228.792969 Z M 207.203125 228.792969"/> <path style="fill:rgb(9.803%,9.803%,9.803%)" d="M 162.179688 306.949219 L 209.378906 312.035156 C 213.648438 312.492188 216.5625 314.417969 215.882812 316.335938 C 215.207031 318.25 211.195312 319.429688 206.925781 318.96875 L 159.726562 313.882812 C 155.457031 313.421875 152.542969 311.496094 153.222656 309.582031 C 153.898438 307.667969 157.910156 306.488281 162.179688 306.949219 Z M 162.179688 306.949219"/> <use mask="url(#mask3)" xlink:href="#surface14"/> </g> </svg>

<svg width="512" height="512" version="1.1" viewBox="0 0 384 384" xmlns="http://www.w3.org/2000/svg"><defs><clipPath><rect width="384" height="384"/></clipPath><clipPath><rect width="384" height="384"/></clipPath><clipPath><rect width="384" height="384"/></clipPath><clipPath><rect width="384" height="384"/></clipPath></defs><path d="m348 157.1c0 78.66-90.875 202.89-170.09 202.89-79.211 0-147.07-124.15-141.6-208.45 3.707-57.277 73.152-128.88 113.66-127.52 13.594 1.3555-10.867 15.312 5.4414 10.766 12.359-3.4453 25.391-5.2891 38.863-5.2891 79.211 0 153.72 48.949 153.72 127.61z" fill="#353a4a"/><path d="m312.42 167.79c0 59.324-16.129 133.91-75.531 172.23-19.344 12.48-39.516 19.98-58.98 19.98-15.934 0-31.414-5.0273-45.922-13.738-57.625-34.609-59.73-125.92-55.363-193.26 12.742-68.773 46-64.879 84.473-75.996 12.359-3.4453 46.273-4.3203 59.738-4.3203 79.211 0 91.59 16.441 91.59 95.094z" fill="#2b2e3a"/><path d="m277.08 220.55c0 30.918-27.766 58.797-42.512 85.848-17.68 32.441-13.738 39.324-49.516 39.324-65.609 0-87.281-60.676-87.281-128.68 0-35.441 1.7188-79.113 24.848-101.58 21.246-20.633 57.082-25.863 88.488-25.863 34.816 0 51.93 25.781 62.125 41.867 9.0156 14.227 3.8476 57.16 3.8476 89.074z" fill="#b3b3b3"/><g fill="#4a4c5c"><path d="m222.41 83.941c6.6524 16.707-16.887 42.199-52.582 56.938-35.695 14.734-70.023 13.137-76.676-3.5742-6.6562-16.711 16.887-42.203 52.578-56.938 35.695-14.738 70.023-13.137 76.68 3.5742z"/><path d="m222.47 89.469c12.859-12.398 47.512-20.164 73.996 8.3125 26.48 28.477 20.414 104.89 7.5547 117.29-12.859 12.398-9.9727-55.16-36.453-83.637-26.484-28.477-57.953-29.57-45.098-41.969z"/><path d="m99.578 129.53c16.824 9.0352 19.344 39.312 5.625 67.633-13.719 28.316 3.4766 74.301-13.352 65.266-16.824-9.0312-35.512-57.398-21.793-85.715 13.723-28.316 12.688-56.211 29.52-47.184z"/></g><path d="m221.69 92.339c35.128 13.93 63.312 40.716 83.797 81.763l-1.6271-22.983c-13.395-26.005-40.23-44.596-69.153-62.034z" fill="#fff" opacity=".1"/><path d="m96.203 129.76c56.746 23.593 123.86-30.508 123.86-30.508s13.627-28.068-13.627-2.8475c-18.341 18.539-67.169 35.156-102.71 31.525z" fill="#fff" opacity=".1"/><path d="m336.37 141.45c4.7695 31.285-7.5 75.762-22.477 103.51-22.242 41.199-50.371 67.648-80.914 94.512 0 0 43.602-78.012 56.66-120.52 6.2734-20.426 12.473-42.129 10.031-63.387-1.8359-15.945-7.0078-28.812-18.707-39.566-9.7773-8.9961-24.266-14.379-37.285-16.469-14.148-2.2734-28.727-2.6641-42.949-0.98438-21.551 2.543-44.309 5.4102-63.004 16.621-10.152 6.0859-19.598 15.102-24.348 26.082-11.941 27.594-10.93 60.473-6.2109 90.238 6.1367 38.742 42.121 119.39 42.121 119.39l-2.0391-0.83594s-20.52-9.6719-36.969-26.316c-16.074-16.242-27.969-39.293-36.195-54.715-16.672-31.246-19.227-65.352-13.316-100.39 3.6992-33.758 18.098-61.656 40.926-80.012 45.402-32.625 98.961-40.254 148.75-28.844 43.734 8.9023 78.703 38.836 85.906 81.703zm0 0" fill="#668ac7" stroke="#353a4a" stroke-linecap="round" stroke-linejoin="round" stroke-width="5.8081"/><g fill="#171717"><path d="m216.38 156.43 32.734-15.828c2.9609-1.4297 6.1992-0.75781 7.2344 1.5 1.0352 2.2617-0.52734 5.2539-3.4844 6.6836l-32.734 15.828c-2.9609 1.4297-6.1992 0.75781-7.2344-1.5-1.0352-2.2578 0.52343-5.25 3.4844-6.6836z"/><path d="m123.19 162.07 30.258 11.422c2.7383 1.0352 4.293 3.6875 3.4688 5.9258s-3.7148 3.2148-6.457 2.1836l-30.254-11.422c-2.7422-1.0352-4.2969-3.6914-3.4688-5.9297 0.82421-2.2383 3.7148-3.2148 6.4531-2.1797z"/><path d="m150.74 201.35c0-16.02-5.0156-29.004-11.207-29.004-6.1875 0-11.207 12.984-11.207 29.004 0 16.02 5.0195 29.004 11.207 29.004 6.1914 0 11.207-12.984 11.207-29.004z"/><path d="m243.18 194.39c-1.1094-16.824-7.3359-30.41-13.91-30.344-6.5742 0.0625-11.008 13.754-9.8984 30.578 1.1094 16.82 7.3359 30.41 13.91 30.344 6.5742-0.0625 11.004-13.754 9.8984-30.578z"/><path d="m207.2 228.79c4.7812 5.8008 17.527 8.8359 20.352 17.297 2.5039 7.5-0.53516 16.777-5.1992 23.156-2.6953 3.6875-7.2656 6.6367-11.816 6.8906-6.9102 0.39062-16.961-1.75-19.008-8.3867-0.54688-1.7656 1.1445-4.1797 2.9102-4.7109 4.3398-1.3047 7.9726 6.9453 12.34 5.7305 7.7617-2.1602 14.883-12.074 13.59-20.059-1.2031-7.4297-14.508-6.9727-17.895-13.691-2.5703-5.1016-5.8867-16.086-0.29297-17.148 1.4297 3.1562 2.9024 8.2695 5.0195 10.922z"/><path d="m162.18 306.95 47.199 5.0859c4.2695 0.45703 7.1836 2.3828 6.5039 4.3008-0.67578 1.9141-4.6875 3.0938-8.957 2.6328l-47.199-5.0859c-4.2695-0.46094-7.1836-2.3867-6.5039-4.3008 0.67578-1.9141 4.6875-3.0938 8.957-2.6328z"/></g><path transform="scale(.75)" d="m197.41 32.012c-54.328 1.1806-144.13 94.868-148.99 170.04-0.3823 5.8889-0.48048 11.931-0.33789 18.08 0.064235-2.7182 0.16511-5.4186 0.33789-8.0801 4.9427-76.37 97.537-171.84 151.55-170.03 0.80839 0.080607 1.4838 0.20584 2.0996 0.34961 3.207-4.1579 7.1312-9.4292-2.0996-10.35-0.84399-0.028321-1.6982-0.032411-2.5606-0.013672zm61.633 7.3164c-17.964 0-35.337 2.459-51.816 7.0527-0.62877 0.1753-1.2018 0.32394-1.7422 0.45898-1.7627 5.7252-13.686 13.843 1.7422 9.541 16.479-4.5938 33.853-7.0527 51.816-7.0527 103.86 0 201.66 63.12 204.87 164.96 0.05543-1.6183 0.0858-3.2253 0.08594-4.8164 0-104.88-99.344-170.15-204.96-170.15z" fill="#fff" opacity=".1" stroke-width="1.3333"/><path transform="scale(.75)" d="m202.07 32.375c-2.908 3.7703-5.2165 6.6216 3.4141 4.4648 0.61083-1.984-0.01905-3.6723-3.4141-4.4648zm261.85 171.92c-3.5979 105.05-122.69 265.7-226.7 265.7-100.08 0-186.56-148.63-189.13-259.85-2.6486 112.08 86.021 269.85 189.13 269.85 105.62 0 226.78-165.63 226.79-270.52 0-1.7389-0.03175-3.4666-0.08594-5.1836z" fill="#000001" opacity=".3" stroke-width="1.3333"/></svg>
